public/images/stack-items/cms-orb-type.svg

<svg height="71" viewBox="0 0 82 71" width="82" xmlns="http://www.w3.org/2000/svg" xmlns:xlink="http://www.w3.org/1999/xlink"><defs><path id="a" d="m26.7038365 6.92175031c25.7387695-12.57080078 29.9814453-6.02099609 47.3369141 3.82958989 16.0517765 9.1106386 2.3820019 46.3097673-18.5449219 57.4111328-7.1344997 3.7847267-21.2253323 1.8971266-31.4960938-3.9233399-40.3969726-22.8930664-23.03466793-44.746582 2.7041016-57.31738279z"/><mask id="b" fill="#fff"><use fill="#fff" fill-rule="evenodd" xlink:href="#a"/></mask></defs><g fill="none" fill-rule="evenodd"><use fill="#20c778" opacity=".9" xlink:href="#a"/><path d="m38.356 47-2.242-6.156h-10.944l-2.242 6.156h-5.548l10.336-26.942h6.08l10.26 26.942zm-7.714-21.128-3.724 10.184h7.448zm15.352 16.036c0-3.344 2.47-5.206 5.586-5.662l4.598-.684c1.064-.152 1.406-.684 1.406-1.33 0-1.33-1.026-2.432-3.154-2.432-2.204 0-3.42 1.406-3.572 3.04l-4.484-.95c.304-2.926 3.002-6.156 8.018-6.156 5.928 0 8.132 3.344 8.132 7.106v9.196c0 .988.114 2.318.228 2.964h-4.636c-.114-.494-.19-1.52-.19-2.242-.95 1.482-2.736 2.774-5.51 2.774-3.99 0-6.422-2.698-6.422-5.624zm7.486 1.862c2.128 0 4.104-1.026 4.104-4.332v-.836l-4.218.646c-1.292.19-2.318.912-2.318 2.356 0 1.102.798 2.166 2.432 2.166z" fill="#fff" mask="url(#b)"/></g></svg>

<?xml version="1.0" encoding="UTF-8"?>
<svg width="82px" height="71px" viewBox="0 0 82 71" version="1.1" xmlns="http://www.w3.org/2000/svg" xmlns:xlink="http://www.w3.org/1999/xlink">
    <!-- Generator: Sketch 50.2 (55047) - http://www.bohemiancoding.com/sketch -->
    <title>cms-orb-type</title>
    <desc>Created with Sketch.</desc>
    <defs>
        <path d="M26.7038365,6.92175031 C52.442606,-5.64905047 56.6852818,0.900754219 74.0407506,10.7513402 C90.0925271,19.8619788 76.4227525,57.0611075 55.4958287,68.162473 C48.361329,71.9471997 34.2704964,70.0595996 23.9997349,64.2391331 C-16.3972377,41.3460667 0.965066969,19.4925511 26.7038365,6.92175031 Z" id="path-1"></path>
    </defs>
    <g id="Landing-Page" stroke="none" stroke-width="1" fill="none" fill-rule="evenodd">
        <g id="landing-v14" transform="translate(-985.000000, -1980.000000)">
            <g id="03-cms" transform="translate(40.000000, 1817.000000)">
                <g id="art" transform="translate(881.000000, 76.000000)">
                    <g id="cms-orb-type" transform="translate(64.000000, 87.000000)">
                        <g id="Aa">
                            <mask id="mask-2" fill="white">
                                <use xlink:href="#path-1"></use>
                            </mask>
                            <use id="Mask" fill="#20C778" opacity="0.900000036" xlink:href="#path-1"></use>
                            <path d="M38.356,47 L36.114,40.844 L25.17,40.844 L22.928,47 L17.38,47 L27.716,20.058 L33.796,20.058 L44.056,47 L38.356,47 Z M30.642,25.872 L26.918,36.056 L34.366,36.056 L30.642,25.872 Z M45.994,41.908 C45.994,38.564 48.464,36.702 51.58,36.246 L56.178,35.562 C57.242,35.41 57.584,34.878 57.584,34.232 C57.584,32.902 56.558,31.8 54.43,31.8 C52.226,31.8 51.01,33.206 50.858,34.84 L46.374,33.89 C46.678,30.964 49.376,27.734 54.392,27.734 C60.32,27.734 62.524,31.078 62.524,34.84 L62.524,44.036 C62.524,45.024 62.638,46.354 62.752,47 L58.116,47 C58.002,46.506 57.926,45.48 57.926,44.758 C56.976,46.24 55.19,47.532 52.416,47.532 C48.426,47.532 45.994,44.834 45.994,41.908 Z M53.48,43.77 C55.608,43.77 57.584,42.744 57.584,39.438 L57.584,38.602 L53.366,39.248 C52.074,39.438 51.048,40.16 51.048,41.604 C51.048,42.706 51.846,43.77 53.48,43.77 Z" fill="#FFFFFF" mask="url(#mask-2)"></path>
                        </g>
                    </g>
                </g>
            </g>
        </g>
    </g>
</svg>
